app/client/src/assets/icons/blueprintjs/20px/tractor.svg

<?xml version="1.0" encoding="UTF-8"?>
<svg viewBox="0 0 20 20" version="1.1" xmlns="http://www.w3.org/2000/svg" xmlns:xlink="http://www.w3.org/1999/xlink">
    <g stroke="none" stroke-width="1" fill="none" fill-rule="evenodd">
        <path d="M4.49961951,11 C6.98469014,11 8.99923792,13.0147186 8.99923792,15.5 C8.99923792,17.9852814 6.98469014,20 4.49961951,20 C2.01454888,20 1.10071133e-06,17.9852814 1.10071133e-06,15.5 C1.10071133e-06,13.0147186 2.01454888,11 4.49961951,11 Z M15.9986443,12 C18.207596,12 19.9983051,13.790861 19.9983051,16 C19.9983051,18.209139 18.207596,20 15.9986443,20 C13.7896927,20 11.9989835,18.209139 11.9989835,16 C11.9989835,13.790861 13.7896927,12 15.9986443,12 Z M4.49961951,13.5714286 C3.43458924,13.5714286 2.57121162,14.4348794 2.57121162,15.5 C2.57121162,16.5651206 3.43458924,17.4285714 4.49961951,17.4285714 C5.56464978,17.4285714 6.4280274,16.5651206 6.4280274,15.5 C6.4280274,14.4348794 5.56464978,13.5714286 4.49961951,13.5714286 Z M15.9986443,14.6666667 C15.2623271,14.6666667 14.6654241,15.2636203 14.6654241,16 C14.6654241,16.7363797 15.2623271,17.3333333 15.9986443,17.3333333 C16.7349616,17.3333333 17.3318646,16.7363797 17.3318646,16 C17.3318646,15.2636203 16.7349616,14.6666667 15.9986443,14.6666667 Z M5.99949231,3.55271368e-15 C7.45946895,3.55271368e-15 8.5266915,0.668247768 8.99998213,2 L9.85129301,6.25645521 C11.2841119,6.35223291 12.6705983,6.47253267 13.9981322,6.61780489 L13.9988139,2 L15.9986443,2 L15.9993155,6.86201594 C16.9612861,6.99228047 17.8853197,7.13715471 18.765847,7.29683742 C19.5447938,7.43809861 19.9983051,7.9112965 19.9983051,8.5809315 L20,13.0009249 C19.0875655,11.7884972 17.6353659,11.0043257 15.9997766,11.0043257 C13.5804264,11.0043257 11.5623345,12.7200994 11.0989037,14.9997328 L9.97941309,15.0005385 C9.72694619,12.2003037 7.37056776,10.0058584 4.5009868,10.0058584 C3.22797453,10.0058584 2.05596125,10.4377284 1.12382482,11.1627696 L0.00395052698,11.1634258 L0.00317968755,9.98350396 C0.00245456251,8.98532867 0.00138363244,7.82121985 5.50151409e-06,7.32571327 C-0.00164758617,6.72898555 0.369353483,6.14616827 0.998942383,6.0235422 L0.999916303,1 C0.999916303,0.44771525 1.44763155,3.65416674e-15 1.9999163,3.55271368e-15 L5.99949231,3.55271368e-15 Z M6.99940751,2 L2.99974671,2 L2.999,6 L3.74817487,6 C5.13485972,6.02670609 6.49783898,6.07289905 7.82782512,6.13891034 L6.99940751,2 Z" fill="#000000"></path>
    </g>
</svg>

<svg xmlns="http://www.w3.org/2000/svg" viewBox="0 0 20 20"><path fill-rule="evenodd" d="M4.5 11a4.5 4.5 0 1 1 0 9 4.5 4.5 0 0 1 0-9Zm11.499 1a4 4 0 1 1 0 8 4 4 0 0 1 0-8Zm-11.5 1.571a1.928 1.928 0 1 0 0 3.857 1.928 1.928 0 0 0 0-3.857ZM16 14.667a1.333 1.333 0 1 0 0 2.666 1.333 1.333 0 0 0 0-2.666ZM5.999 0C7.46 0 8.527.668 9 2l.851 4.256c1.433.096 2.82.217 4.147.362V2h2L16 6.862c.962.13 1.886.275 2.767.435.779.141 1.232.614 1.232 1.284L20 13a4.995 4.995 0 0 0-4-1.997A5.001 5.001 0 0 0 11.099 15h-1.12a5.499 5.499 0 0 0-5.478-4.994 5.482 5.482 0 0 0-3.377 1.157H.004v-1.18L0 7.327c-.002-.597.37-1.18.999-1.302V1a1 1 0 0 1 1-1h4Zm1 2H3v4h.75c1.386.027 2.749.073 4.079.139L6.999 2Z"/></svg>
